svg/24/logo-macos.svg

<svg width="24" height="24" viewBox="0 0 24 24" fill="currentColor" xmlns="http://www.w3.org/2000/svg"><path d="M11.2941 14.1412C11.2941 15.8235 10.4176 16.8824 9.01765 16.8824C7.61765 16.8824 6.74118 15.8176 6.74118 14.1412C6.74118 12.4529 7.61765 11.3941 9.01765 11.3941C10.4176 11.3941 11.2941 12.4529 11.2941 14.1412ZM13.2471 8.20588L12.6353 8.24706C12.2882 8.27059 12.1353 8.39412 12.1353 8.61765C12.1353 8.85294 12.3294 8.98235 12.6 8.98235C12.9706 8.98235 13.2471 8.74118 13.2471 8.41765V8.20588ZM22 12C22 17.5824 17.5824 22 12 22C6.41765 22 2 17.5824 2 12C2 6.41765 6.41765 2 12 2C17.5824 2 22 6.41765 22 12ZM14.3176 8.08235C14.3176 8.89412 14.7647 9.38824 15.4941 9.38824C16.1118 9.38824 16.5 9.04118 16.5647 8.54706H16.0824C16.0176 8.81765 15.8059 8.96471 15.4941 8.96471C15.0824 8.96471 14.8294 8.62941 14.8294 8.08235C14.8294 7.54118 15.0824 7.21765 15.4941 7.21765C15.8235 7.21765 16.0294 7.40588 16.0824 7.64706H16.5647C16.5 7.16471 16.1235 6.8 15.4941 6.8C14.7647 6.79412 14.3176 7.28824 14.3176 8.08235ZM7.59412 6.84706V9.34118H8.08824V7.81177C8.08824 7.48824 8.31765 7.22941 8.61765 7.22941C8.91177 7.22941 9.1 7.40588 9.1 7.68824V9.34118H9.58235V7.76471C9.58235 7.46471 9.78824 7.22941 10.1118 7.22941C10.4353 7.22941 10.5941 7.39412 10.5941 7.74118V9.34118H11.0882V7.61765C11.0882 7.1 10.7941 6.79412 10.2882 6.79412C9.94118 6.79412 9.65294 6.97059 9.52941 7.24118H9.48824C9.37647 6.97059 9.14118 6.79412 8.8 6.79412C8.46471 6.79412 8.21176 6.95882 8.10588 7.24118H8.07059V6.84118L7.59412 6.84706ZM12.1706 14.1412C12.1706 11.9706 10.9588 10.6059 9.01765 10.6059C7.07647 10.6059 5.86471 11.9706 5.86471 14.1412C5.86471 16.3118 7.07647 17.6706 9.01765 17.6706C10.9588 17.6706 12.1706 16.3059 12.1706 14.1412ZM12.4765 9.38235C12.8059 9.38235 13.0765 9.24118 13.2294 8.98824H13.2706V9.34118H13.7471V7.63529C13.7471 7.11176 13.3941 6.8 12.7647 6.8C12.1941 6.8 11.7941 7.07647 11.7412 7.49412H12.2176C12.2706 7.31177 12.4647 7.21176 12.7412 7.21176C13.0765 7.21176 13.2529 7.36471 13.2529 7.64118V7.85882L12.5765 7.9C11.9824 7.93529 11.6471 8.19412 11.6471 8.64706C11.6412 9.09412 11.9941 9.38235 12.4765 9.38235ZM17.8706 15.6118C17.8706 14.6412 17.3059 14.0765 15.8824 13.7647L15.1235 13.6C14.1882 13.3941 13.8235 13.0235 13.8235 12.4882C13.8235 11.7941 14.4824 11.3765 15.3353 11.3765C16.2294 11.3765 16.8176 11.8353 16.8941 12.5882H17.7471C17.7059 11.4294 16.7235 10.6118 15.3588 10.6118C13.9412 10.6118 12.9471 11.4059 12.9471 12.5294C12.9471 13.5 13.5412 14.1235 14.9118 14.4235L15.6706 14.5882C16.6176 14.7941 17 15.1765 17 15.7471C17 16.4176 16.3235 16.9059 15.4 16.9059C14.4176 16.9059 13.7353 16.4588 13.6353 15.7235H12.7824C12.8647 16.9059 13.8588 17.6706 15.3529 17.6706C16.8765 17.6706 17.8706 16.8765 17.8706 15.6118Z"/></svg>

<svg xmlns="http://www.w3.org/2000/svg" width="24" height="24" fill="currentColor" viewBox="0 0 24 24">
  <path d="M11.294 14.141c0 1.682-.876 2.741-2.276 2.741s-2.277-1.064-2.277-2.74c0-1.69.877-2.748 2.277-2.748 1.4 0 2.276 1.059 2.276 2.747Zm1.953-5.935-.612.041c-.347.024-.5.147-.5.37 0 .236.194.365.465.365.37 0 .647-.24.647-.564v-.212ZM22 12c0 5.582-4.418 10-10 10S2 17.582 2 12 6.418 2 12 2s10 4.418 10 10Zm-7.682-3.918c0 .812.447 1.306 1.176 1.306.618 0 1.006-.347 1.07-.84h-.482c-.064.27-.276.417-.588.417-.412 0-.665-.336-.665-.883 0-.54.253-.864.665-.864.33 0 .535.188.588.43h.483c-.065-.483-.442-.848-1.07-.848-.73-.006-1.177.488-1.177 1.282ZM7.594 6.847v2.494h.494v-1.53c0-.323.23-.582.53-.582.294 0 .482.177.482.46V9.34h.482V7.765c0-.3.206-.536.53-.536.323 0 .482.165.482.512v1.6h.494V7.618c0-.518-.294-.824-.8-.824-.347 0-.635.177-.759.447h-.04a.706.706 0 0 0-.689-.447c-.335 0-.588.165-.694.447H8.07v-.4l-.477.006Zm4.577 7.294c0-2.17-1.212-3.535-3.153-3.535-1.942 0-3.153 1.365-3.153 3.535s1.211 3.53 3.153 3.53c1.94 0 3.153-1.365 3.153-3.53Zm.306-4.759c.329 0 .6-.14.752-.394h.042v.353h.476V7.635c0-.523-.353-.835-.982-.835-.57 0-.97.276-1.024.694h.477c.053-.182.247-.282.523-.282.335 0 .512.153.512.43v.217l-.677.041c-.594.035-.929.294-.929.747-.006.447.347.735.83.735Zm5.394 6.23c0-.97-.565-1.536-1.989-1.847l-.758-.165c-.936-.206-1.3-.576-1.3-1.112 0-.694.658-1.111 1.511-1.111.894 0 1.483.458 1.56 1.211h.852c-.041-1.159-1.023-1.976-2.388-1.976-1.418 0-2.412.794-2.412 1.917 0 .971.594 1.595 1.965 1.895l.759.164c.947.206 1.329.589 1.329 1.16 0 .67-.677 1.158-1.6 1.158-.982 0-1.665-.447-1.765-1.182h-.853c.083 1.182 1.077 1.947 2.57 1.947 1.524 0 2.519-.794 2.519-2.06Z"/>
</svg>
